X:667
T:Mr. Gun Munro of Poyntz-Field
R:Reel
B:The Athole Collection
M:C|
L:1/8
K:C
E|C2EC GCEG|AcEc dDDE|C2EC GCEG|ceAc GCC:|
e|~c2 ec gcec|GcEc dDDe|~c2 ec gcec|AcGE GCCe|~c2 ec gcec|
AcEc dDDE|C2EC GCEG|ceAc GCC||

